assets/icons/instagram.svg

<?xml version="1.0" encoding="UTF-8"?>
<svg width="24px" height="24px" viewBox="0 0 24 24" version="1.1" xmlns="http://www.w3.org/2000/svg" xmlns:xlink="http://www.w3.org/1999/xlink">
    <!-- Generator: Sketch 53.2 (72643) - https://sketchapp.com -->
    <title>Icon/Social/Instagram</title>
    <desc>Created with Sketch.</desc>
    <g id="Icon/Social/Instagram" stroke="none" stroke-width="1" fill="none" fill-rule="evenodd">
        <path d="M12,4 C14.17264,4 14.44512,4.00928 15.2984,4.04816 C16.14992,4.08688 16.73136,4.22224 17.24032,4.42 C17.7664,4.62448 18.21248,4.89792 18.65728,5.34272 C19.10208,5.78752 19.37568,6.2336 19.58,6.75968 C19.77776,7.26864 19.91296,7.85008 19.95184,8.7016 C19.99072,9.55488 20,9.82736 20,12 C20,14.17264 19.99072,14.44512 19.95184,15.2984 C19.91296,16.14992 19.77776,16.73136 19.58,17.24032 C19.37568,17.7664 19.10208,18.21248 18.65728,18.65728 C18.21248,19.10208 17.7664,19.37552 17.24032,19.58 C16.73136,19.77776 16.14992,19.91312 15.2984,19.95184 C14.44512,19.99072 14.17264,20 12,20 C9.82736,20 9.55488,19.99072 8.7016,19.95184 C7.85008,19.91312 7.26864,19.77776 6.75968,19.58 C6.2336,19.37552 5.78752,19.10208 5.34272,18.65728 C4.89792,18.21248 4.62432,17.7664 4.42,17.24032 C4.22224,16.73136 4.08704,16.14992 4.04816,15.2984 C4.00928,14.44512 4,14.17264 4,12 C4,9.82736 4.00928,9.55488 4.04816,8.7016 C4.08704,7.85008 4.22224,7.26864 4.42,6.75968 C4.62432,6.2336 4.89792,5.78752 5.34272,5.34272 C5.78752,4.89792 6.2336,4.62448 6.75968,4.42 C7.26864,4.22224 7.85008,4.08688 8.7016,4.04816 C9.55488,4.00928 9.82736,4 12,4 Z M12,5.44144 C9.86384,5.44144 9.61088,5.4496 8.76736,5.488 C7.98736,5.52368 7.56368,5.65392 7.28192,5.76352 C6.90848,5.90864 6.64192,6.08208 6.36208,6.36192 C6.08208,6.64192 5.90864,6.90848 5.76352,7.28176 C5.65408,7.56368 5.52352,7.98736 5.48816,8.76736 C5.4496,9.61088 5.44144,9.86384 5.44144,12 C5.44144,14.13616 5.4496,14.38912 5.48816,15.23264 C5.52352,16.01264 5.65408,16.43632 5.76352,16.71824 C5.90864,17.09152 6.08208,17.35808 6.36208,17.63808 C6.64192,17.91792 6.90848,18.09136 7.28192,18.23648 C7.56368,18.34608 7.98736,18.47632 8.76736,18.512 C9.61072,18.5504 9.86368,18.55856 12,18.55856 C14.13632,18.55856 14.38928,18.5504 15.23264,18.512 C16.01264,18.47632 16.43632,18.34608 16.71808,18.23648 C17.09152,18.09136 17.35808,17.91792 17.63792,17.63808 C17.91792,17.35808 18.09136,17.09152 18.23648,16.71824 C18.34592,16.43632 18.47648,16.01264 18.51184,15.23264 C18.5504,14.38912 18.55856,14.13616 18.55856,12 C18.55856,9.86384 18.5504,9.61088 18.51184,8.76736 C18.47648,7.98736 18.34592,7.56368 18.23648,7.28176 C18.09136,6.90848 17.91792,6.64192 17.63792,6.36192 C17.35808,6.08208 17.09152,5.90864 16.71808,5.76352 C16.43632,5.65392 16.01264,5.52368 15.23264,5.488 C14.38912,5.4496 14.13616,5.44144 12,5.44144 Z M12,14.66664 C13.4728,14.66664 14.66672,13.47272 14.66672,11.99992 C14.66672,10.52728 13.4728,9.33336 12,9.33336 C10.5272,9.33336 9.33328,10.52728 9.33328,11.99992 C9.33328,13.47272 10.5272,14.66664 12,14.66664 Z M12,7.89192 C14.26896,7.89192 16.10816,9.73112 16.10816,11.99992 C16.10816,14.26888 14.26896,16.10808 12,16.10808 C9.73104,16.10808 7.89184,14.26888 7.89184,11.99992 C7.89184,9.73112 9.73104,7.89192 12,7.89192 Z M17.230464,7.729616 C17.230464,8.259696 16.800544,8.689616 16.270464,8.689616 C15.740224,8.689616 15.310464,8.259696 15.310464,7.729616 C15.310464,7.199376 15.740224,6.769616 16.270464,6.769616 C16.800544,6.769616 17.230464,7.199376 17.230464,7.729616 Z" id="Shape" fill="#000000"></path>
    </g>
</svg>

<svg class="ucla-icon instagram" width="24" height="24" viewBox="0 0 24 24" aria-labelledby="icon-instagram" role="img"><title id="icon-instagram">Icon Social Instagram</title><g fill="none" fill-rule="evenodd"><path d="M12 4c2.173 0 2.445.01 3.298.048.852.039 1.433.174 1.942.372.526.204.972.478 1.417.923.445.445.719.89.923 1.417.198.509.333 1.09.372 1.942C19.99 9.555 20 9.827 20 12s-.01 2.445-.048 3.298c-.039.852-.174 1.433-.372 1.942a3.92 3.92 0 0 1-.923 1.417c-.445.445-.89.719-1.417.923-.509.198-1.09.333-1.942.372-.853.039-1.125.048-3.298.048s-2.445-.01-3.298-.048c-.852-.039-1.433-.174-1.942-.372a3.921 3.921 0 0 1-1.417-.923 3.92 3.92 0 0 1-.923-1.417c-.198-.509-.333-1.09-.372-1.942C4.01 14.445 4 14.173 4 12s.01-2.445.048-3.298c.039-.852.174-1.433.372-1.942a3.92 3.92 0 0 1 .923-1.417c.445-.445.89-.719 1.417-.923.509-.198 1.09-.333 1.942-.372C9.555 4.01 9.827 4 12 4zm0 1.441c-2.136 0-2.39.009-3.233.047-.78.036-1.203.166-1.485.276-.374.145-.64.318-.92.598a2.48 2.48 0 0 0-.598.92c-.11.282-.24.705-.276 1.485-.038.844-.047 1.097-.047 3.233s.009 2.39.047 3.233c.036.78.166 1.203.276 1.485.145.374.318.64.598.92.28.28.546.453.92.598.282.11.705.24 1.485.276.844.038 1.097.047 3.233.047s2.39-.009 3.233-.047c.78-.036 1.203-.166 1.485-.276.374-.145.64-.318.92-.598.28-.28.453-.546.598-.92.11-.282.24-.705.276-1.485.038-.844.047-1.097.047-3.233s-.009-2.39-.047-3.233c-.036-.78-.166-1.203-.276-1.485a2.48 2.48 0 0 0-.598-.92 2.479 2.479 0 0 0-.92-.598c-.282-.11-.705-.24-1.485-.276-.844-.038-1.097-.047-3.233-.047zm0 9.226a2.667 2.667 0 1 0 0-5.334 2.667 2.667 0 0 0 0 5.334zm0-6.775a4.108 4.108 0 1 1 0 8.216 4.108 4.108 0 0 1 0-8.216zm5.23-.162a.96.96 0 1 1-1.92 0 .96.96 0 0 1 1.92 0z" id="Shape" fill="#000"/></g></svg>
